src/content/images/arrow-down.svg

<?xml version="1.0" encoding="UTF-8"?>
<svg width="18px" height="32px" viewBox="0 0 18 32" version="1.1" xmlns="http://www.w3.org/2000/svg" xmlns:xlink="http://www.w3.org/1999/xlink">
    <!-- Generator: Sketch 58 (84663) - https://sketch.com -->
    <title>Path</title>
    <desc>Created with Sketch.</desc>
    <g id="Rework6.0" stroke="none" stroke-width="1" fill="none" fill-rule="evenodd">
        <g id="V4.1-Hauptseite" transform="translate(-92.000000, -891.000000)" fill="#FF0045">
            <g id="Scroll" transform="translate(92.000000, 880.000000)">
                <g id="tail-down" transform="translate(0.000000, 11.000000)">
                    <path d="M9.75184,31.03184 L17.59184,23.19184 C18.0291612,22.7545188 18.0291612,22.0454812 17.59184,21.60816 C17.1545188,21.1708388 16.4454812,21.1708388 16.00816,21.60816 L10.08,27.53632 L10.08,27.53632 L10.08,1.2275405 C10.08,0.608180495 9.57824,0.107540495 8.96,0.107540495 C8.34176,0.107540495 7.84,0.608180495 7.84,1.2275405 L7.84,27.53632 L1.91184,21.60816 C1.47451884,21.1708388 0.765481156,21.1708388 0.32816,21.60816 C-0.109161156,22.0454812 -0.109161156,22.7545188 0.32816,23.19184 L8.16816,31.03184 L8.16816,31.03184 C8.60608,31.46976 9.31392,31.46976 9.75184,31.03184 Z" id="Path"></path>
                </g>
            </g>
        </g>
    </g>
</svg>

<svg height="32" viewBox="0 0 18 32" width="18" xmlns="http://www.w3.org/2000/svg"><path d="m9.75184 31.03184 7.84-7.84c.4373212-.4373212.4373212-1.1463588 0-1.58368s-1.1463588-.4373212-1.58368 0l-5.92816 5.92816v-26.3087795c0-.61936-.50176-1.12-1.12-1.12s-1.12.50064-1.12 1.12v26.3087795l-5.92816-5.92816c-.43732116-.4373212-1.14635884-.4373212-1.58368 0s-.43732116 1.1463588 0 1.58368l7.84 7.84c.43792.43792 1.14576.43792 1.58368 0z" fill="#ff0045" fill-rule="evenodd"/></svg>
